X:25
T:Gigue des Capuchons
C:Joseph Allard
M:6/8
L:1/8
Z:abc by Bruce Osborne - bosborne@kos.net
K:D
g|faa afa|gfe d2 e|faf ede|fdf efg|!
faa afa|gfe d2 e|faf ede|fdd d2:|!
|:F|A3 G3|FAd fed|cBc edc|dfe dcB|!
A3 G3|FAd fed|cBc edc|dfe d2:|!
